X: 43169
T: Winter Wie Ist Nu Dein Kraft
R: barndance
M: 4/4
K: Ddorian
|:F2D2 F4|G4 A4|A2d4A2-|A2G2F4|
A2A4G2|F2D2C4|D2E2F2G2|F2E2 D4:|
|:A2d4A2|A4 B2 A2-|A2 G4 F2|G4A4:|
F2D2 F4|G4 A4|A2d4A2-|A2G2F4|
A2A4G2|F2D2C4|D2E2F2G2|F2E2 D4|

